X:1
T:Theme From Schindlers List
T:Theme From Schindler's List
T:John Williams Arr. Byron Riveiro
T:Solo Cello
C:John Williams
L:1/8
M:4/4
K:C
V:1 bass nm="Piano" snm="Pno."
V:1
!mp!"^A" !tenuto!A,,2 | vA,D,A,D, (_B,A,)F,A,, | F,G,,F,G, A,4 | A,D,A,D, (!tenuto!C_B,)(A,G,) | %4
 (C,_B,,)!tenuto!E,!tenuto!G, (_B,A,)G,F, | G,_B,,G,B,, (A,G,F,)G, | A,6 !tenuto!A,,2 | %7
 G,_B,,G,B,, (A,G,F,E,) |!<(! D,4!>(! E,4!<)!!>)! | F,G,,F,G,, (A,G,)F,E, | %10
 !breath!D,6 !tenuto!A,2 |[K:bass+8]!mf! A,D,A,D, (_B,A,)F,!tenuto!A,, | F,!tenuto!G,,F,G, A,4 | %13
 A,D,A,D, C_B,A,G, | C,_B,,E,G, _B,A,G,F, |!mp! G,_B,,G,B,, (A,G,F,)G, | A,6 !tenuto!A,,2 | %17
 G,_B,,G,B,, (A,G,)(F,E,) |"_dim." (D,4 E,4) | F,G,,F,G,, (A,G,F,E,) |[K:bass]!>(! [D,D]8!>)! || %21
"^B" z4!mp! =B,,3 (A,,/G,,/) | D,2 G,,2 (A,,>G,,) (A,,/D,/F,/A,/) | %23
 (D4 D/)(G/E/)D/ (_B,/G,/E,/D,/) | _B,,2 G,G,, (G,>F,) E,E- | %25
 E!mf!(E/D/) !tenuto!F!tenuto!E (=B,>C) (D2 | D)(C/D/) =B,(A,/^G,/) (B,!>(! A,3)!>)! | %27
[K:bass+8] z (E,/D,/) !tenuto!=G,!tenuto!F, (B,,>C,) (D,2 | %28
 D,/) z/"_cresc." (D,,/E,,/)"_tempi esp." !tenuto!.F,,(F,,/G,,/) !tenuto!.A,,!tenuto!B,,/!tenuto!C,/ (7:4:7^D,/^F,,/=B,,/D,/[K:treble]^F/B/^d/ | %29
[K:bass+8]"^C""^tempo primo esspr."!f! EA,EA, (=FE)CE, | CD,CD E4 | EA,EA, GFED | G,F,=B,D FEDC | %33
 DF,DF, EDCD |[M:5/4]"_dim." (E2 E/)(C/B,/A,/ E,/C,/B,,/A,,/)[K:bass] E,3 C | %35
[M:4/4]!mp! DF,DF, (ED)({CD}CB,) | A,A,, (C,/E,/F,/)!tenuto!A,/ (B,4{C)B,A,B,} | vCD,CD, EDCB, | %38
 (A,3 B,,) (C,/E,/)A,/(C/[K:bass+8]"_cresc." E,/)A,/(C/D/) | EA,EA, FECE, | %40
!f! !tenuto!GFED"^dim." (C/D/)(B,/A,/)[K:bass+8](10:32:10(G,/16F,/16E,/16D,/16C,/16B,,/16A,,/16G,,/16F,,/16E,,/16) | %41
"_calando" (D,,C,,B,,,)F,, (D,C,B,,)D,, |[K:bass+8] (F,E,)D,(B, D)(F,E,)^G |!>(! (A8!>)! | %44
!pp! A6) x2 |] %45

